X:215
%%annotationfont Times-Roman 13
T:Dandy Dancer #2, The
C:Joe Buchanan's Scottish Tome - Page 285.2
I:285 2
Z:Carl Allison
C:Jim Johnston
R:Jig
L:1/8
M:6/8
K:A
ed | c2 A AGA | EAA cBA | dBB fBB | gfe dcB |
[2 "@-23,24 nd Time 2nd Part"c2 A AGA | EAA cBA | dcB gfg | a3 a2 :|
e | aec Ace | agf edc | dBB fBB | gfe dcB |
aec Ace | agf edc | dcB gfg | a3 a2 :|
